X: 1
T: Nessa The Mover
M: 2/4
L: 1/8
R: polka
K: Emin
E>F GA|Be ed|Bc/B/ AG|FE EF|
E>F GA|Be ed|(3BcB AF|E2 E2:|
b2 af|fe ed|ef ed|ef ga|
b2 af|fe ed|Bc/B/ AF|E2 E2||
b2 af|fe ed|ef ed|ef ga||
b2 af|g2 fe|e/f/e dB|AG FE||
